X:1
T:4 Mélodies
T:A toi
T:à Madame Alfred Ott
T:4 Mélodies
T:1. A toi
T:Paroles et Musique de Marie Jaëll 
T:Traduction française de Charles Grandmougin 
T:Creative Commons copyright waiver (CC0 1.0 Universal)
T:Creative Commons copyright waiver (CC0 1.0 Universal)
C:Marie Jaëll
Z:Marie Jaëll (original lyrics)
Z:Creative Commons copyright waiver (CC0 1.0 Universal)
L:1/8
Q:1/4=71
M:2/4
K:Ab
V:1 treble nm="Chant\nVoice"
V:1
"^Tranquille  avec simplicité" z4 | z2 z A | c c A A | B3/2 A/ G G | A A F F | G3 A | c c A A | %7
w: |Les|ar- bres, le zé-|phyr, les fleurs Con-|\- nais- sent mon ser-|ment; Je|leur dis la joie|
 B3/2 A/ G G | A A F F | A3 A |!>(! d c B c!>)! | (A>F) E e | d2 c2 | B7/2 c/ | B2 z E | E E E E | %16
w: et les pleurs De|mon coeur trop ai-|\- mant. O|to! qui m'as char-|mé- * e, Je|t'ai- me|sans dé-|tour. Aux|fleurs, à la ra-|
 E E z z/ E/ | E E E E | E4 | z2 z A | c c A A | B3/2 A/ G G | A A F F | G3 A | c c A A | %25
w: mé- e, J'ai|dit tout mon a-|mour.|Les|bois dé- serts aux|doux é- chos Et|les é- toi- les|d'or Et|la chan- son des|
 B3/2 A/ G G | A A F F | A3 A | d c B c | (A>F) E e | d2 c2 | B7/2 c/ | B2 z E | E E E E | %34
w: clairs ruis- seaux Tout|me dit: aime en-|cor! O|toi qui m'as char-|\- mé- * e, Je|t'ai- me|sans dé-|tour. Aux|fleurs, à la ra-|
 E E z E | E2 E2 | D3 C | C4 | z4 | z4 |] %40
w: \- mé- e J'ai|dit tout|mon a-|mour.|||

